img/favicon.svg

<svg width="25" height="25" viewBox="0 0 25 25" fill="none" xmlns="http://www.w3.org/2000/svg">
<path d="M2 25H15.1558C20.3442 25 23 22.5893 23 18V17.9286C23 14.5179 21.3116 12.4464 18.0578 11.8571V11.5357C20.7839 11 22.2085 9.17857 22.2085 6.21429V6.125C22.2085 2.08929 19.7286 0 14.8744 0H2V25ZM7.18844 10.2321V3.53571H13.3266C15.8065 3.53571 17.0377 4.64286 17.0377 6.82143V6.89286C17.0377 9.10714 15.8065 10.2321 13.3266 10.2321H7.18844ZM7.18844 21.4464V13.4821H13.4849C16.2111 13.4821 17.5653 14.8036 17.5653 17.3929V17.4643C17.5653 20.1071 16.2111 21.4464 13.4849 21.4464H7.18844Z" fill="#ECECEC"/>
</svg>

<svg width="25" height="25" fill="none" xmlns="http://www.w3.org/2000/svg"><path d="M2 25h13.156C20.344 25 23 22.59 23 18v-.071c0-3.411-1.688-5.483-4.942-6.072v-.321c2.726-.536 4.15-2.357 4.15-5.322v-.089c0-4.036-2.48-6.125-7.334-6.125H2v25Zm5.188-14.768V3.536h6.139c2.48 0 3.71 1.107 3.71 3.285v.072c0 2.214-1.23 3.34-3.71 3.34H7.188Zm0 11.214v-7.964h6.297c2.726 0 4.08 1.322 4.08 3.91v.072c0 2.643-1.354 3.982-4.08 3.982H7.188Z" fill="#ECECEC"/></svg>
